;FLAVOR:Marlin
;TIME:20287
;Filament used: 13.1475m
;Layer height: 0.2
;MINX:0
;MINY:47.502
;MINZ:0.2
;MAXX:86.936
;MAXY:187.13
;MAXZ:29
;TARGET_MACHINE.NAME:Creality Ender-3
;Generated with Cura_SteamEngine 5.10.1
M140 S50
M105
M190 S50
M104 S200
M105
M109 S200
; Ender 3 Custom Start G-code
G92 E0 ; Reset Extruder
G28 ; Home all axes
G1 Z2.0 F3000 ; Move Z Axis up little to prevent scratching of Heat Bed
G1 X0.1 Y20 Z0.3 F5000.0 ; Move to start position
G1 X0.1 Y200.0 Z0.3 F1500.0 E15 ; Draw the first line
G1 X0.4 Y200.0 Z0.3 F5000.0 ; Move to side a little
G1 X0.4 Y20 Z0.3 F1500.0 E30 ; Draw the second line
G92 E0 ; Reset Extruder
G1 Z2.0 F3000 ; Move Z Axis up little to prevent scratching of Heat Bed
G1 X5 Y20 Z0.3 F5000.0 ; Move over to prevent blob squish
M82 ;absolute extrusion mode
G92 E0
G92 E0
G1 F2700 E-5
;LAYER_COUNT:145
;LAYER:0
M107
G0 F6000 X0.00 Y54.209 Z0.2
;TYPE:SKIRT
G1 F2700 E0
G1 F1200 X0.424 Y53.417 E0.02988
G1 X0.832 Y52.783 E0.05496
G1 X1.063 Y52.453 E0.06835
G1 X1.656 Y51.681 E0.10073
G1 X2.315 Y50.965 E0.1331
G1 X3.025 Y50.316 E0.16509
G1 X3.487 Y49.951 E0.18467
G1 X3.903 Y49.646 E0.20183
G1 X4.742 Y49.107 E0.235
G1 X5.577 Y48.668 E0.26637
G1 X6.676 Y48.221 E0.30583
G1 X7.465 Y47.962 E0.33345
G1 X8.442 Y47.723 E0.36691
G1 X9.406 Y47.577 E0.39934
G1 X10.407 Y47.515 E0.43269
G1 X11.169 Y47.504 E0.45804
G1 X74.473 Y47.502 E2.56354
G1 X75.356 Y47.515 E2.59291
G1 X76.328 Y47.574 E2.6253
G1 X77.291 Y47.72 E2.6577
G1 X78.222 Y47.945 E2.68955
G1 X78.958 Y48.176 E2.71521
G1 X79.914 Y48.55 E2.74935
G1 X80.757 Y48.969 E2.78066
G1 X81.77 Y49.6 E2.82036
G1 X82.276 Y49.964 E2.84109
G1 X83.047 Y50.601 E2.87435
G1 X83.743 Y51.29 E2.90693
G1 X84.446 Y52.129 E2.94333
G1 X84.849 Y52.681 E2.96606
G1 X85.384 Y53.526 E2.99933
G1 X85.832 Y54.399 E3.03197
G1 X86.252 Y55.455 E3.06976
G1 X86.404 Y55.928 E3.08629
G1 X86.56 Y56.468 E3.10498
G1 X86.707 Y57.101 E3.1266
G1 X86.863 Y58.117 E3.16079
G1 X86.92 Y58.933 E3.18799
G1 X86.935 Y59.683 E3.21294
G1 X86.936 Y174.537 E7.033
G1 X86.925 Y175.43 E7.06271
G1 X86.902 Y175.983 E7.08111
G1 X86.836 Y176.659 E7.1037
G1 X86.699 Y177.53 E7.13303
G1 X86.484 Y178.479 E7.16539
G1 X86.186 Y179.406 E7.19778
G1 X85.823 Y180.272 E7.22901
G1 X85.352 Y181.161 E7.26247
G1 X84.888 Y181.883 E7.29102
G1 X84.662 Y182.204 E7.30408
G1 X84.066 Y182.976 E7.33651
G1 X83.404 Y183.691 E7.36892
G1 X82.695 Y184.335 E7.40078
G1 X82.246 Y184.688 E7.41978
G1 X81.897 Y184.944 E7.43417
G1 X81.083 Y185.477 E7.46653
G1 X80.213 Y185.942 E7.49934
G1 X79.022 Y186.429 E7.54214
G1 X78.327 Y186.656 E7.56646
G1 X77.382 Y186.893 E7.59886
G1 X76.454 Y187.042 E7.63012
G1 X75.349 Y187.116 E7.66696
G1 X74.58 Y187.128 E7.69254
G1 X11.366 Y187.13 E9.79504
G1 X10.18 Y187.108 E9.8345
G1 X9.166 Y187.018 E9.86836
G1 X8.446 Y186.9 E9.89262
G1 X7.576 Y186.709 E9.92225
G1 X6.558 Y186.381 E9.95782
G1 X5.601 Y185.97 E9.99246
G1 X4.868 Y185.593 E10.01988
G1 X4.012 Y185.07 E10.05324
G1 X3.258 Y184.511 E10.08446
G1 X2.508 Y183.846 E10.1178
G1 X2.013 Y183.352 E10.14106
G1 X1.475 Y182.75 E10.16791
G1 X0.926 Y182.033 E10.19795
G1 X0.375 Y181.161 E10.23225
G1 X0.072 Y180.59 E10.25375
G1 X0.00 Y180.421 E10.25986
G0 F6000 X0.00 Y179.4
G1 F1200 X0.44 Y180.433 E10.29721
G1 X0.728 Y180.972 E10.31753
G1 X1.244 Y181.79 E10.3497
G1 X1.793 Y182.507 E10.37974
G1 X2.275 Y183.036 E10.40354
G1 X2.296 Y183.069 E10.40484
G1 X2.791 Y183.563 E10.4281
G1 X3.523 Y184.211 E10.46062
G1 X4.25 Y184.748 E10.49068
G1 X5.051 Y185.237 E10.52189
G1 X5.759 Y185.602 E10.54839
G1 X6.716 Y186.013 E10.58303
G1 X7.698 Y186.328 E10.61733
G1 X8.531 Y186.509 E10.64568
G1 X9.23 Y186.623 E10.66924
G1 X10.187 Y186.708 E10.70119
G1 X11.373 Y186.73 E10.74064
G1 X74.58 Y186.728 E12.84292
G1 X75.343 Y186.716 E12.8683
G1 X76.427 Y186.643 E12.90443
G1 X77.318 Y186.498 E12.93446
G1 X78.229 Y186.268 E12.96571
G1 X78.897 Y186.049 E12.98909
G1 X80.061 Y185.572 E13.03093
G1 X80.894 Y185.125 E13.06237
G1 X81.677 Y184.61 E13.09354
G1 X82.009 Y184.366 E13.10725
G1 X82.447 Y184.021 E13.12579
G1 X83.135 Y183.395 E13.15673
G1 X83.772 Y182.705 E13.18796
G1 X84.345 Y181.96 E13.21922
G1 X84.561 Y181.653 E13.23171
G1 X85.015 Y180.945 E13.25968
G1 X85.454 Y180.117 E13.29085
G1 X85.817 Y179.251 E13.32208
G1 X86.103 Y178.357 E13.3533
G1 X86.309 Y177.442 E13.3845
G1 X86.441 Y176.597 E13.41294
G1 X86.502 Y175.966 E13.43403
G1 X86.525 Y175.413 E13.45244
G1 X86.536 Y174.532 E13.48174
G1 X86.535 Y59.683 E17.30163
G1 X86.52 Y58.941 E17.32632
G1 X86.464 Y58.145 E17.35286
G1 X86.317 Y57.191 E17.38496
G1 X86.17 Y56.558 E17.40658
G1 X86.02 Y56.039 E17.42455
G1 X85.88 Y55.603 E17.43978
G1 X85.46 Y54.547 E17.47758
G1 X85.028 Y53.709 E17.50893
G1 X84.511 Y52.895 E17.54101
G1 X84.139 Y52.386 E17.56198
G1 X83.436 Y51.547 E17.59838
G1 X82.766 Y50.886 E17.62969
G1 X82.042 Y50.289 E17.6609
G1 X81.536 Y49.925 E17.68163
G1 X80.546 Y49.309 E17.72041
G1 X79.737 Y48.909 E17.75043
G1 X78.838 Y48.558 E17.78253
G1 X78.102 Y48.327 E17.80818
G1 X77.197 Y48.109 E17.83914
G1 X76.269 Y47.97 E17.87035
G1 X75.332 Y47.914 E17.90157
G1 X74.467 Y47.902 E17.93035
G1 X11.169 Y47.904 E20.03565
G1 X10.413 Y47.915 E20.06079
G1 X9.431 Y47.976 E20.09352
G1 X8.502 Y48.118 E20.12478
G1 X7.59 Y48.342 E20.15601
G1 X6.827 Y48.592 E20.18272
G1 X5.728 Y49.039 E20.22218
G1 X4.929 Y49.461 E20.25223
G1 X4.14 Y49.969 E20.28344
G1 X3.724 Y50.274 E20.3006
G1 X3.273 Y50.63 E20.31971
G1 X2.585 Y51.26 E20.35074
G1 X1.951 Y51.951 E20.38193
G1 X1.38 Y52.696 E20.41315
G1 X1.16 Y53.012 E20.42595
G1 X0.761 Y53.633 E20.4505
G1 X0.319 Y54.457 E20.4816
G1 X0.00 Y55.203 E20.50859
G0 F6000 X0.00 Y56.507
G1 F1200 X0.039 Y56.336 E20.51442
G1 X0.318 Y55.477 E20.54446
G1 X0.672 Y54.646 E20.5745
G1 X1.098 Y53.849 E20.60456
G1 X1.497 Y53.228 E20.62911
G1 X1.698 Y52.939 E20.64082
G1 X2.246 Y52.221 E20.67086
G1 X2.855 Y51.555 E20.70088
G1 X3.521 Y50.944 E20.73094
G1 X3.961 Y50.596 E20.7496
G1 X4.357 Y50.305 E20.76594
G1 X5.116 Y49.815 E20.79599
G1 X5.915 Y49.393 E20.82604
G1 X6.977 Y48.963 E20.86415
G1 X7.686 Y48.73 E20.88897
G1 X8.563 Y48.513 E20.91902
G1 X9.456 Y48.375 E20.94908
G1 X10.419 Y48.315 E20.98117
G1 X11.169 Y48.304 E21.00612
G1 X74.462 Y48.302 E23.11125
G1 X75.309 Y48.313 E23.13942
G1 X76.211 Y48.366 E23.16948
G1 X77.104 Y48.498 E23.1995
G1 X77.982 Y48.709 E23.22953
G1 X78.718 Y48.94 E23.25519
G1 X79.56 Y49.268 E23.28525
G1 X80.369 Y49.668 E23.31526
G1 X81.303 Y50.25 E23.35186
G1 X81.788 Y50.598 E23.37172
G1 X82.486 Y51.171 E23.40176
G1 X83.13 Y51.804 E23.43179
G1 X83.816 Y52.622 E23.4673
G1 X84.188 Y53.131 E23.48827
G1 X84.673 Y53.893 E23.51831
G1 X85.088 Y54.695 E23.54834
G1 X85.499 Y55.726 E23.58526
G1 X85.636 Y56.15 E23.60008
G1 X85.78 Y56.648 E23.61732
G1 X85.927 Y57.281 E23.63893
G1 X86.065 Y58.173 E23.66896
G1 X86.12 Y58.949 E23.69483
G1 X86.135 Y59.683 E23.71925
G1 X86.136 Y174.527 E27.53897
G1 X86.125 Y175.396 E27.56788
G1 X86.102 Y175.949 E27.58629
G1 X86.046 Y176.536 E27.6059
G1 X85.919 Y177.355 E27.63347
G1 X85.722 Y178.236 E27.66349
G1 X85.448 Y179.097 E27.69354
G1 X85.1 Y179.93 E27.72357
G1 X84.678 Y180.729 E27.75362
G1 X84.233 Y181.424 E27.78107
G1 X84.028 Y181.717 E27.79297
G1 X83.478 Y182.434 E27.82302
G1 X82.866 Y183.099 E27.85308
G1 X82.199 Y183.707 E27.8831
G1 X81.772 Y184.044 E27.90119
G1 X81.457 Y184.276 E27.9142
G1 X80.704 Y184.773 E27.94421
G1 X79.909 Y185.202 E27.97426
G1 X78.745 Y185.679 E28.0161
G1 X78.13 Y185.88 E28.03762
G1 X77.254 Y186.103 E28.06768
G1 X76.363 Y186.248 E28.09771
G1 X75.337 Y186.316 E28.13191
G1 X74.58 Y186.328 E28.15709
G1 X11.38 Y186.33 E30.25913
G1 X10.194 Y186.308 E30.29858
G1 X9.294 Y186.228 E30.32863
G1 X8.615 Y186.118 E30.35151
G1 X7.82 Y185.947 E30.37856
G1 X6.874 Y185.645 E30.41159
G1 X5.917 Y185.234 E30.44623
G1 X5.259 Y184.895 E30.47085
G1 X4.488 Y184.426 E30.50086
G1 X3.761 Y183.889 E30.53092
G1 X3.074 Y183.28 E30.56146
G1 X2.579 Y182.786 E30.58472
G1 X2.584 Y182.781 E30.58495
G1 X2.111 Y182.264 E30.60826
G1 X1.562 Y181.547 E30.63829
G1 X1.08 Y180.783 E30.66834
G1 X0.808 Y180.276 E30.68748
G1 X0.333 Y179.165 E30.72766
G1 X0.067 Y178.353 E30.75608
G1 X0.00 Y178.094 E30.76498
G1 F2700 E25.76498
;MESH:top part - Copy.STL
G0 F6000 X9.656 Y175.647
G0 X10.855 Y175.127
;TYPE:WALL-INNER
G1 F2700 E30.76498
G1 F1411.8 X10.792 Y175.091 E30.76703
G1 X10.771 Y175.127 E30.76821
G1 X10.834 Y175.163 E30.77026
G1 X10.855 Y175.127 E30.77144
G1 F2700 E25.77144
G0 F6000 X10.66 Y174.712
G0 X17.416 Y126.708
G0 X28.579 Y126.425
G1 F2700 E30.77144
G1 F1200 X28.351 Y126.532 E30.77982
G1 X17.436 Y126.529 E31.14285
G1 X16.786 Y126.378 E31.16505
G1 X16.154 Y125.921 E31.19099
G1 X15.897 Y125.621 E31.20413
G1 X15.612 Y125.06 E31.22505
G1 X15.504 Y124.606 E31.24058
G1 X15.504 Y114.086 E31.59047
G1 X15.729 Y113.377 E31.61521
G1 X16.13 Y112.826 E31.63788
G1 X16.785 Y112.351 E31.66479
G1 X17.432 Y112.199 E31.68689
G1 X28.323 Y112.196 E32.04913
G1 X28.494 Y112.253 E32.05513
G1 X28.734 Y112.46 E32.06567
G1 X28.831 Y112.714 E32.07471
G1 X28.835 Y125.973 E32.51571
G1 X28.804 Y126.128 E32.52096
G1 X28.694 Y126.321 E32.52835
G1 X28.579 Y126.425 E32.53351
G1 F2700 E27.53351
G0 F6000 X28.578 Y126.444
G0 X28.939 Y126.311
G0 X74.703 Y126.31
G0 X74.904 Y167.828
G1 F2700 E32.53351
G1 F1200 X74.901 Y63.294 E36.01032
G1 X74.707 Y63.467 E36.01897
G1 X74.371 Y63.697 E36.03251
G1 X73.958 Y63.885 E36.04761
G1 X73.519 Y64 E36.0627
G1 X73.024 Y64.03 E36.07919
G1 X72.624 Y63.999 E36.09254
G1 X72.18 Y63.884 E36.10779
G1 X71.766 Y63.696 E36.12292
G1 X71.432 Y63.468 E36.13637
G1 X71.099 Y63.161 E36.15143
G1 X70.803 Y62.771 E36.16771
G1 X70.592 Y62.36 E36.18308
G1 X70.452 Y61.874 E36.1999
G1 X70.402 Y61.477 E36.21321
G1 X70.422 Y61.028 E36.22816
G1 X70.509 Y60.63 E36.24171
G1 X70.685 Y60.156 E36.25853
G1 X70.953 Y59.743 E36.2749
G1 X71.136 Y59.533 E36.28417
G1 X14.607 Y59.537 E38.16433
G1 X14.787 Y59.743 E38.17343
G1 X15.052 Y60.152 E38.18964
G1 X15.226 Y60.587 E38.20522
G1 X15.318 Y61.028 E38.2202
G1 X15.338 Y61.483 E38.23535
G1 X15.282 Y61.928 E38.25027
G1 X15.148 Y62.361 E38.26534
G1 X14.943 Y62.764 E38.28038
G1 X14.675 Y63.129 E38.29544
G1 X14.347 Y63.438 E38.31043
G1 X13.976 Y63.694 E38.32542
G1 X13.564 Y63.884 E38.34051
G1 X13.119 Y64 E38.35581
G1 X12.624 Y64.031 E38.3723
G1 X12.225 Y63.999 E38.38562
G1 X11.786 Y63.887 E38.40069
G1 X11.364 Y63.695 E38.41611
G1 X11.033 Y63.468 E38.42946
G1 X10.836 Y63.29 E38.43829
G1 X10.845 Y171.319 E42.03135
G1 X11.137 Y171.082 E42.04385
G1 X11.571 Y170.83 E42.06055
G1 X12.044 Y170.672 E42.07713
G1 X12.44 Y170.604 E42.0905
G1 X12.906 Y170.604 E42.106
G1 X13.342 Y170.68 E42.12072
G1 X13.768 Y170.831 E42.13575
G1 X14.166 Y171.055 E42.15094
G1 X14.507 Y171.326 E42.16543
G1 X14.813 Y171.676 E42.18089
G1 X15.053 Y172.054 E42.19578
G1 X15.226 Y172.487 E42.21129
G1 X15.318 Y172.928 E42.22627
G1 X15.338 Y173.383 E42.24142
G1 X15.282 Y173.828 E42.25634
G1 X15.162 Y174.214 E42.26978
G1 X14.95 Y174.656 E42.28609
G1 X14.63 Y175.096 E42.30418
G1 X71.113 Y175.091 E44.18281
G1 X70.799 Y174.668 E44.20034
G1 X70.593 Y174.263 E44.21545
G1 X70.46 Y173.825 E44.23067
G1 X70.402 Y173.378 E44.24567
G1 X70.422 Y172.923 E44.26081
G1 X70.536 Y172.444 E44.27719
G1 X70.686 Y172.056 E44.29103
G1 X70.927 Y171.676 E44.30599
G1 X71.233 Y171.326 E44.32146
G1 X71.574 Y171.056 E44.33592
G1 X71.975 Y170.829 E44.35125
G1 X72.444 Y170.672 E44.3677
G1 X72.834 Y170.604 E44.38086
G1 X73.301 Y170.604 E44.3964
G1 X73.747 Y170.682 E44.41146
G1 X74.173 Y170.833 E44.42649
G1 X74.603 Y171.082 E44.44302
G1 X74.904 Y171.327 E44.45592
G1 X74.904 Y167.828 E44.5723
G1 F2700 E39.5723
G0 F6000 X75.082 Y171.781
G0 X74.199 Y172.433
G0 X74.263 Y174.004
G0 X74.976 Y175.122
G1 F2700 E44.5723
G1 F1411.8 X74.913 Y175.086 E44.57435
G1 X74.892 Y175.122 E44.57553
G1 X74.955 Y175.158 E44.57758
G1 X74.976 Y175.122 E44.57876
G0 F6000 X75.194 Y175.454
;TYPE:WALL-OUTER
G1 F1200 X75.304 Y175.305 E44.58492
G1 F1179.4 X75.297 Y173.735 E44.63805
G1 X75.168 Y174.126 E44.65199
G1 F1200 X74.994 Y174.467 E44.66472
G1 X74.786 Y174.751 E44.67643
G1 X74.505 Y175.018 E44.68932
G1 X74.16 Y175.255 E44.70324
G1 X73.843 Y175.398 E44.71481
G1 F1212.1 X73.474 Y175.495 E44.72737
G1 F1209.1 X75.095 Y175.492 E44.78088
G1 F1200 X75.194 Y175.454 E44.78441
G1 F2700 E39.78441
G0 F6000 X75.006 Y175.201
G0 X74.516 Y175.28
G0 X73.474 Y175.495
G1 F2700 E44.78441
G1 F1269.8 X73.058 Y175.512 E44.7975
G1 F1280 X72.705 Y175.498 E44.80851
G1 F2700 E39.80851
G0 F6000 X73.072 Y174.667
G0 X74.442 Y173.56
G0 X75.297 Y173.735
G1 F2700 E44.80851
G1 F1227.6 X75.32 Y173.348 E44.82112
G1 F1269.8 X75.31 Y172.964 E44.83319
G1 F2700 E39.83319
G0 F6000 X75.09 Y171.82
G0 X75.305 Y168.46
G1 F2700 E44.83319
G1 F1170.7 X75.3 Y115.147 E46.65072
G1 F1165 X75.295 Y61.834 E48.47711
G1 F1182.3 X75.167 Y62.226 E48.49103
G1 F1200 X74.993 Y62.566 E48.50373
G1 X74.785 Y62.851 E48.51547
G1 X74.505 Y63.118 E48.52834
G1 X74.159 Y63.354 E48.54227
G1 X73.811 Y63.51 E48.55495
G1 X73.44 Y63.604 E48.56768
G1 X73.056 Y63.632 E48.58049
G1 X72.669 Y63.598 E48.59341
G1 X72.329 Y63.51 E48.60509
G1 X71.95 Y63.337 E48.61895
G1 X71.658 Y63.138 E48.6307
G1 X71.359 Y62.852 E48.64446
G1 X71.142 Y62.559 E48.65659
G1 X70.96 Y62.195 E48.67012
G1 X70.849 Y61.822 E48.68307
G1 X70.805 Y61.482 E48.69447
G1 X70.824 Y61.06 E48.70852
G1 X70.9 Y60.716 E48.72024
G1 X71.054 Y60.321 E48.73434
G1 X71.238 Y60.029 E48.74582
G1 X71.511 Y59.715 E48.75966
G1 X71.814 Y59.477 E48.77247
G1 X72.122 Y59.305 E48.7842
G1 F1151.1 X72.511 Y59.15 E48.79872
G1 X72.126 Y59.132 E48.81209
G1 F1200 X13.662 Y59.135 E50.75661
G1 F1156.6 X13.229 Y59.152 E50.77156
G1 X13.618 Y59.305 E50.78599
G1 F1200 X13.953 Y59.495 E50.7988
G1 X14.256 Y59.741 E50.81178
G1 X14.502 Y60.029 E50.82437
G1 X14.686 Y60.321 E50.83585
G1 X14.844 Y60.719 E50.8501
G1 X14.92 Y61.094 E50.86282
G1 X14.935 Y61.482 E50.87574
G1 X14.884 Y61.86 E50.88842
G1 X14.78 Y62.196 E50.90012
G1 X14.603 Y62.554 E50.9134
G1 X14.375 Y62.865 E50.92623
G1 X14.095 Y63.128 E50.93901
G1 X13.79 Y63.337 E50.9513
G1 X13.443 Y63.499 E50.96404
G1 X13.075 Y63.598 E50.97672
G1 X12.656 Y63.632 E50.9907
G1 X12.269 Y63.598 E51.00362
G1 X11.929 Y63.51 E51.0153
G1 X11.551 Y63.338 E51.02911
G1 X11.259 Y63.138 E51.04089
G1 X10.959 Y62.852 E51.05467
G1 X10.733 Y62.543 E51.0674
G1 X10.573 Y62.227 E51.07918
G1 F1179.4 X10.443 Y61.823 E51.09355
G1 X10.437 Y62.259 E51.1083
G1 F1200 X10.444 Y172.22 E54.76562
G1 F1230.8 X10.434 Y172.963 E54.78972
G1 X10.51 Y172.588 E54.80213
G1 F1200 X10.637 Y172.256 E54.81395
G1 X10.838 Y171.929 E54.82672
G1 X11.111 Y171.615 E54.84055
G1 X11.414 Y171.377 E54.85337
G1 X11.753 Y171.191 E54.86623
G1 X12.113 Y171.066 E54.87891
G1 X12.492 Y171.004 E54.89168
G1 X12.883 Y171.006 E54.90468
G1 X13.227 Y171.066 E54.9163
G1 X13.618 Y171.205 E54.9301
G1 X13.941 Y171.386 E54.94241
G1 X14.239 Y171.623 E54.95508
G1 X14.493 Y171.916 E54.96798
G1 X14.686 Y172.221 E54.97998
G1 X14.844 Y172.619 E54.99422
G1 X14.92 Y172.994 E55.00695
G1 X14.935 Y173.382 E55.01986
G1 X14.884 Y173.76 E55.03255
G1 X14.78 Y174.096 E55.04425
G1 X14.594 Y174.467 E55.05805
G1 X14.386 Y174.751 E55.06976
G1 X14.082 Y175.037 E55.08364
G1 X13.759 Y175.255 E55.0966
G1 F1203 X13.411 Y175.409 E55.10923
G1 F1206 X13.074 Y175.497 E55.12076
G1 F1203 X71.929 Y175.491 E57.07339
G1 F1218.3 X72.705 Y175.498 E57.09881
G1 X72.297 Y175.399 E57.11256
G1 F1200 X71.98 Y175.255 E57.12415
G1 X71.658 Y175.038 E57.13706
G1 X71.359 Y174.752 E57.15082
G1 X71.133 Y174.443 E57.16355
G1 X70.96 Y174.095 E57.17648
G1 X70.849 Y173.722 E57.18942
G1 X70.805 Y173.382 E57.20083
G1 X70.824 Y172.96 E57.21488
G1 X70.9 Y172.616 E57.22659
G1 X71.054 Y172.221 E57.2407
G1 X71.247 Y171.916 E57.2527
G1 X71.501 Y171.623 E57.2656
G1 X71.799 Y171.386 E57.27826
G1 X72.153 Y171.191 E57.2917
G1 X72.513 Y171.066 E57.30438
G1 X72.857 Y171.006 E57.31599
G1 X73.283 Y171.007 E57.33016
G1 X73.659 Y171.075 E57.34287
G1 X74.018 Y171.205 E57.35557
G1 X74.353 Y171.395 E57.36838
G1 X74.656 Y171.641 E57.38136
G1 X74.902 Y171.929 E57.39396
G1 X75.102 Y172.253 E57.40662
G1 X75.234 Y172.586 E57.41854
G1 F1218.3 X75.31 Y172.964 E57.43117
G1 X75.305 Y172.573 E57.44398
G1 F1188.1 X75.305 Y168.46 E57.58214
G1 F2700 E52.58214
