;FLAVOR:Marlin
;TIME:9845
;Filament used: 6.79174m
;Layer height: 0.2
;MINX:47.686
;MINY:73.436
;MINZ:0.2
;MAXX:187.314
;MAXY:161.564
;MAXZ:7
;TARGET_MACHINE.NAME:Creality Ender-3
;Generated with Cura_SteamEngine 5.10.1
M140 S50
M105
M190 S50
M104 S200
M105
M109 S200
; Ender 3 Custom Start G-code
G92 E0 ; Reset Extruder
G28 ; Home all axes
G1 Z2.0 F3000 ; Move Z Axis up little to prevent scratching of Heat Bed
G1 X0.1 Y20 Z0.3 F5000.0 ; Move to start position
G1 X0.1 Y200.0 Z0.3 F1500.0 E15 ; Draw the first line
G1 X0.4 Y200.0 Z0.3 F5000.0 ; Move to side a little
G1 X0.4 Y20 Z0.3 F1500.0 E30 ; Draw the second line
G92 E0 ; Reset Extruder
G1 Z2.0 F3000 ; Move Z Axis up little to prevent scratching of Heat Bed
G1 X5 Y20 Z0.3 F5000.0 ; Move over to prevent blob squish
M82 ;absolute extrusion mode
G92 E0
G92 E0
G1 F2700 E-5
;LAYER_COUNT:35
;LAYER:0
M107
G0 F6000 X52.801 Y75.567 Z0.2
;TYPE:SKIRT
G1 F2700 E0
G1 F1200 X53.62 Y75.041 E0.03237
G1 X54.455 Y74.602 E0.06375
G1 X55.597 Y74.139 E0.10474
G1 X55.893 Y74.038 E0.11514
G1 X55.974 Y74.022 E0.11789
G1 X56.339 Y73.897 E0.13072
G1 X57.32 Y73.657 E0.16431
G1 X58.284 Y73.511 E0.19674
G1 X59.285 Y73.449 E0.23009
G1 X60.046 Y73.438 E0.25541
G1 X174.851 Y73.436 E4.07384
G1 X175.725 Y73.449 E4.10291
G1 X176.554 Y73.494 E4.13052
G1 X177.53 Y73.628 E4.16329
G1 X178.719 Y73.915 E4.20397
G1 X179.406 Y74.134 E4.22795
G1 X180.081 Y74.394 E4.25201
G1 X180.974 Y74.818 E4.28489
G1 X182.114 Y75.513 E4.3293
G1 X182.388 Y75.705 E4.34043
G1 X183.172 Y76.313 E4.37343
G1 X183.861 Y76.95 E4.40463
G1 X184.511 Y77.665 E4.43677
G1 X184.871 Y78.122 E4.45612
G1 X185.183 Y78.551 E4.47377
G1 X185.709 Y79.37 E4.50614
G1 X186.148 Y80.205 E4.53752
G1 X186.603 Y81.325 E4.57773
G1 X186.847 Y82.067 E4.6037
G1 X187.093 Y83.07 E4.63805
G1 X187.239 Y84.034 E4.67048
G1 X187.301 Y85.035 E4.70384
G1 X187.312 Y85.797 E4.72919
G1 X187.314 Y149.101 E6.83468
G1 X187.301 Y149.974 E6.86372
G1 X187.256 Y150.801 E6.89127
G1 X187.122 Y151.777 E6.92404
G1 X186.839 Y152.954 E6.9643
G1 X186.628 Y153.619 E6.9875
G1 X186.356 Y154.331 E7.01286
G1 X185.932 Y155.224 E7.04573
G1 X185.237 Y156.364 E7.09014
G1 X185.045 Y156.638 E7.10127
G1 X184.437 Y157.422 E7.13427
G1 X183.8 Y158.111 E7.16548
G1 X183.085 Y158.761 E7.19762
G1 X182.628 Y159.121 E7.21697
G1 X182.199 Y159.433 E7.23461
G1 X181.38 Y159.959 E7.26698
G1 X180.545 Y160.398 E7.29836
G1 X179.425 Y160.853 E7.33857
G1 X178.683 Y161.097 E7.36455
G1 X177.68 Y161.343 E7.3989
G1 X176.716 Y161.489 E7.43132
G1 X175.715 Y161.551 E7.46468
G1 X174.954 Y161.562 E7.49
G1 X60.149 Y161.564 E11.30842
G1 X59.275 Y161.551 E11.3375
G1 X58.446 Y161.506 E11.36511
G1 X57.47 Y161.372 E11.39788
G1 X56.281 Y161.085 E11.43856
G1 X55.594 Y160.866 E11.46254
G1 X54.919 Y160.606 E11.4866
G1 X54.026 Y160.182 E11.51948
G1 X52.886 Y159.487 E11.56389
G1 X52.612 Y159.295 E11.57501
G1 X51.828 Y158.687 E11.60801
G1 X51.139 Y158.05 E11.63922
G1 X50.457 Y157.296 E11.67304
G1 X50.207 Y156.96 E11.68697
G1 X50.146 Y156.901 E11.68979
G1 X49.817 Y156.449 E11.70838
G1 X49.291 Y155.63 E11.74076
G1 X48.869 Y154.831 E11.77081
G1 X48.401 Y153.684 E11.81201
G1 X48.28 Y153.332 E11.82439
G1 X48.025 Y152.466 E11.85442
G1 X47.821 Y151.44 E11.88921
G1 X47.719 Y150.488 E11.92106
G1 X47.699 Y149.963 E11.93853
G1 X47.688 Y149.203 E11.96381
G1 X47.686 Y85.899 E14.06931
G1 X47.699 Y85.016 E14.09868
G1 X47.758 Y84.045 E14.13104
G1 X47.89 Y83.152 E14.16106
G1 X48.183 Y81.968 E14.20163
G1 X48.337 Y81.479 E14.21868
G1 X48.644 Y80.669 E14.24749
G1 X49.068 Y79.776 E14.28037
G1 X49.763 Y78.636 E14.32478
G1 X49.955 Y78.362 E14.33591
G1 X50.563 Y77.578 E14.36891
G1 X51.2 Y76.889 E14.40012
G1 X51.915 Y76.239 E14.43226
G1 X52.365 Y75.884 E14.45132
G1 X52.801 Y75.567 E14.46925
G0 F6000 X53.018 Y75.903
G1 F1200 X53.807 Y75.395 E14.50046
G1 X54.606 Y74.973 E14.53051
G1 X55.726 Y74.518 E14.57072
G1 X56.022 Y74.417 E14.58112
G1 X56.066 Y74.413 E14.58259
G1 X56.468 Y74.276 E14.59672
G1 X57.38 Y74.052 E14.62795
G1 X58.309 Y73.91 E14.65921
G1 X59.291 Y73.849 E14.69194
G1 X60.046 Y73.838 E14.71705
G1 X174.845 Y73.836 E18.53528
G1 X175.704 Y73.848 E18.56385
G1 X176.5 Y73.89 E18.59036
G1 X177.436 Y74.017 E18.62178
G1 X178.625 Y74.304 E18.66246
G1 X179.263 Y74.508 E18.68474
G1 X179.91 Y74.756 E18.70779
G1 X180.766 Y75.16 E18.73927
G1 X181.884 Y75.841 E18.78281
G1 X182.158 Y76.033 E18.79394
G1 X182.9 Y76.607 E18.82514
G1 X183.589 Y77.244 E18.85635
G1 X184.197 Y77.913 E18.88642
G1 X184.548 Y78.358 E18.90527
G1 X184.847 Y78.768 E18.92215
G1 X185.355 Y79.557 E18.95336
G1 X185.777 Y80.356 E18.98341
G1 X186.232 Y81.476 E19.02362
G1 X186.467 Y82.192 E19.04868
G1 X186.698 Y83.13 E19.08081
G1 X186.84 Y84.059 E19.11207
G1 X186.901 Y85.041 E19.14479
G1 X186.912 Y85.797 E19.16994
G1 X186.914 Y149.095 E21.27524
G1 X186.902 Y149.953 E21.30378
G1 X186.86 Y150.747 E21.33023
G1 X186.733 Y151.683 E21.36164
G1 X186.45 Y152.86 E21.40191
G1 X186.254 Y153.477 E21.42344
G1 X185.994 Y154.16 E21.44775
G1 X185.59 Y155.016 E21.47923
G1 X184.909 Y156.134 E21.52277
G1 X184.717 Y156.408 E21.5339
G1 X184.143 Y157.15 E21.5651
G1 X183.506 Y157.839 E21.59631
G1 X182.837 Y158.447 E21.62637
G1 X182.392 Y158.798 E21.64522
G1 X181.982 Y159.097 E21.6621
G1 X181.193 Y159.605 E21.69331
G1 X180.394 Y160.027 E21.72337
G1 X179.274 Y160.482 E21.76358
G1 X178.558 Y160.717 E21.78864
G1 X177.62 Y160.948 E21.82077
G1 X176.691 Y161.09 E21.85203
G1 X175.709 Y161.151 E21.88475
G1 X174.954 Y161.162 E21.90987
G1 X60.155 Y161.164 E25.7281
G1 X59.296 Y161.152 E25.75667
G1 X58.5 Y161.11 E25.78318
G1 X57.564 Y160.983 E25.8146
G1 X56.375 Y160.696 E25.85528
G1 X55.737 Y160.492 E25.87756
G1 X55.09 Y160.244 E25.9006
G1 X54.234 Y159.84 E25.93209
G1 X53.116 Y159.159 E25.97563
G1 X52.842 Y158.967 E25.98675
G1 X52.1 Y158.393 E26.01796
G1 X51.411 Y157.756 E26.04917
G1 X50.778 Y157.057 E26.08053
G1 X50.504 Y156.689 E26.09579
G1 X50.469 Y156.665 E26.0972
G1 X50.153 Y156.232 E26.11503
G1 X49.645 Y155.443 E26.14624
G1 X49.223 Y154.644 E26.1763
G1 X48.779 Y153.554 E26.21544
G1 X48.664 Y153.219 E26.22722
G1 X48.409 Y152.353 E26.25725
G1 X48.219 Y151.397 E26.28967
G1 X48.119 Y150.472 E26.32061
G1 X48.099 Y149.957 E26.33775
G1 X48.088 Y149.203 E26.36283
G1 X48.086 Y85.905 E28.46813
G1 X48.098 Y85.04 E28.49691
G1 X48.154 Y84.103 E28.52813
G1 X48.286 Y83.21 E28.55815
G1 X48.565 Y82.088 E28.59661
G1 X48.719 Y81.599 E28.61366
G1 X49.006 Y80.84 E28.64065
G1 X49.41 Y79.984 E28.67213
G1 X50.091 Y78.866 E28.71567
G1 X50.283 Y78.592 E28.7268
G1 X50.857 Y77.85 E28.758
G1 X51.494 Y77.161 E28.78921
G1 X52.184 Y76.535 E28.82019
G1 X52.601 Y76.207 E28.83784
G1 X53.018 Y75.903 E28.855
G0 F6000 X53.235 Y76.239
G1 F1200 X53.994 Y75.749 E28.88505
G1 X54.793 Y75.327 E28.91511
G1 X55.855 Y74.897 E28.95321
G1 X56.151 Y74.796 E28.96362
G1 X56.154 Y74.805 E28.96393
G1 X56.564 Y74.664 E28.97835
G1 X57.441 Y74.447 E29.0084
G1 X58.334 Y74.309 E29.03845
G1 X59.297 Y74.249 E29.07055
G1 X60.046 Y74.238 E29.09546
G1 X174.84 Y74.236 E32.91353
G1 X175.684 Y74.247 E32.9416
G1 X176.447 Y74.286 E32.96701
G1 X177.342 Y74.406 E32.99704
G1 X178.531 Y74.693 E33.03773
G1 X179.121 Y74.882 E33.05833
G1 X179.74 Y75.118 E33.08037
G1 X180.558 Y75.502 E33.11042
G1 X181.676 Y76.183 E33.15396
G1 X181.914 Y76.35 E33.16363
G1 X182.629 Y76.901 E33.19365
G1 X183.293 Y77.513 E33.22369
G1 X183.901 Y78.182 E33.25376
G1 X184.225 Y78.594 E33.27119
G1 X184.511 Y78.985 E33.2873
G1 X185.001 Y79.744 E33.31735
G1 X185.423 Y80.543 E33.3474
G1 X185.853 Y81.605 E33.38551
G1 X186.086 Y82.314 E33.41033
G1 X186.303 Y83.191 E33.44038
G1 X186.441 Y84.084 E33.47044
G1 X186.501 Y85.047 E33.50253
G1 X186.512 Y85.797 E33.52748
G1 X186.514 Y149.09 E35.63261
G1 X186.503 Y149.933 E35.66065
G1 X186.464 Y150.694 E35.68599
G1 X186.344 Y151.589 E35.71603
G1 X186.061 Y152.766 E35.75629
G1 X185.88 Y153.335 E35.77615
G1 X185.632 Y153.99 E35.79944
G1 X185.248 Y154.808 E35.8295
G1 X184.567 Y155.926 E35.87304
G1 X184.4 Y156.164 E35.88271
G1 X183.849 Y156.879 E35.91273
G1 X183.237 Y157.543 E35.94277
G1 X182.568 Y158.151 E35.97284
G1 X182.156 Y158.475 E35.99027
G1 X181.765 Y158.761 E36.00638
G1 X181.006 Y159.251 E36.03643
G1 X180.207 Y159.673 E36.06648
G1 X179.145 Y160.103 E36.10459
G1 X178.436 Y160.336 E36.12941
G1 X177.559 Y160.553 E36.15946
G1 X176.666 Y160.691 E36.18952
G1 X175.703 Y160.751 E36.22161
G1 X174.954 Y160.762 E36.24652
G1 X60.16 Y160.764 E40.06459
G1 X59.316 Y160.753 E40.09266
G1 X58.553 Y160.714 E40.11807
G1 X57.658 Y160.594 E40.1481
G1 X56.469 Y160.307 E40.18879
G1 X55.879 Y160.118 E40.20939
G1 X55.26 Y159.882 E40.23143
G1 X54.442 Y159.498 E40.26148
G1 X53.324 Y158.817 E40.30502
G1 X53.086 Y158.65 E40.31469
G1 X52.371 Y158.099 E40.34471
G1 X51.707 Y157.487 E40.37475
G1 X51.099 Y156.818 E40.40482
G1 X50.803 Y156.421 E40.42129
G1 X50.792 Y156.429 E40.42174
G1 X50.489 Y156.015 E40.4388
G1 X49.999 Y155.256 E40.46885
G1 X49.577 Y154.457 E40.4989
G1 X49.15 Y153.404 E40.5367
G1 X49.048 Y153.106 E40.54717
G1 X48.793 Y152.24 E40.5772
G1 X48.617 Y151.354 E40.60724
G1 X48.519 Y150.456 E40.63729
G1 X48.499 Y149.951 E40.6541
G1 X48.488 Y149.203 E40.67898
G1 X48.486 Y85.91 E42.78411
G1 X48.497 Y85.063 E42.81229
G1 X48.55 Y84.161 E42.84234
G1 X48.682 Y83.268 E42.87236
G1 X48.947 Y82.208 E42.9087
G1 X49.101 Y81.719 E42.92576
G1 X49.368 Y81.01 E42.95095
G1 X49.752 Y80.192 E42.98101
G1 X50.433 Y79.074 E43.02455
G1 X50.6 Y78.836 E43.03422
G1 X51.151 Y78.121 E43.06424
G1 X51.763 Y77.457 E43.09428
G1 X52.432 Y76.849 E43.12434
G1 X52.837 Y76.53 E43.14149
G1 X53.235 Y76.239 E43.15789
G1 F2700 E38.15789
;MESH:top part.STL
G0 F6000 X64.015 Y87.723
G0 X117.5 Y149.53
;TYPE:WALL-INNER
G1 F2700 E43.15789
G1 F1200 X171.511 Y149.528 E44.9543
G1 X171.239 Y149.198 E44.96853
G1 X171.013 Y148.792 E44.98398
G1 X170.856 Y148.324 E45.0004
G1 X170.788 Y147.928 E45.01376
G1 X170.788 Y147.468 E45.02906
G1 X170.865 Y147.024 E45.04405
G1 X171.015 Y146.6 E45.05901
G1 X171.241 Y146.2 E45.07429
G1 X171.511 Y145.864 E45.08863
G1 X171.859 Y145.556 E45.10408
G1 X172.248 Y145.311 E45.11937
G1 X172.714 Y145.138 E45.13591
G1 X173.111 Y145.05 E45.14943
G1 X173.559 Y145.03 E45.16435
G1 X173.961 Y145.08 E45.17782
G1 X174.439 Y145.218 E45.19437
G1 X174.849 Y145.423 E45.20962
G1 X175.28 Y145.746 E45.22753
G1 X175.277 Y89.258 E47.10633
G1 X174.843 Y89.576 E47.12422
G1 X174.489 Y89.753 E47.13739
G1 X174.062 Y89.894 E47.15234
G1 X173.572 Y89.967 E47.16882
G1 X173.112 Y89.946 E47.18414
G1 X172.668 Y89.853 E47.19922
G1 X172.241 Y89.68 E47.21455
G1 X171.859 Y89.44 E47.22955
G1 X171.521 Y89.146 E47.24445
G1 X171.241 Y88.796 E47.25936
G1 X171.013 Y88.394 E47.27473
G1 X170.856 Y87.924 E47.29121
G1 X170.788 Y87.534 E47.30438
G1 X170.788 Y87.069 E47.31985
G1 X170.864 Y86.627 E47.33476
G1 X171.015 Y86.2 E47.34983
G1 X171.239 Y85.798 E47.36513
G1 X171.514 Y85.464 E47.37952
G1 X63.485 Y85.473 E50.97258
G1 X63.66 Y85.666 E50.98125
G1 X63.898 Y86.038 E50.99593
G1 X64.068 Y86.411 E51.00957
G1 X64.184 Y86.852 E51.02474
G1 X64.215 Y87.348 E51.04126
G1 X64.183 Y87.749 E51.05464
G1 X64.066 Y88.19 E51.06982
G1 X63.85 Y88.649 E51.08669
G1 X63.658 Y88.933 E51.09809
G1 X63.316 Y89.304 E51.11488
G1 X62.948 Y89.571 E51.13
G1 X62.544 Y89.776 E51.14507
G1 X62.112 Y89.909 E51.1601
G1 X61.667 Y89.966 E51.17502
G1 X61.212 Y89.946 E51.19017
G1 X60.77 Y89.854 E51.20519
G1 X60.345 Y89.683 E51.22042
G1 X60.002 Y89.471 E51.23383
G1 X59.716 Y89.228 E51.24632
G1 X59.72 Y145.764 E53.12671
G1 X60.003 Y145.526 E53.13901
G1 X60.345 Y145.314 E53.15239
G1 X60.725 Y145.164 E53.16598
G1 X61.208 Y145.05 E53.18249
G1 X61.666 Y145.03 E53.19773
G1 X62.112 Y145.086 E53.21269
G1 X62.545 Y145.221 E53.22777
G1 X62.951 Y145.427 E53.24291
G1 X63.314 Y145.698 E53.25798
G1 X63.628 Y146.018 E53.27289
G1 X63.852 Y146.355 E53.28635
G1 X64.067 Y146.807 E53.303
G1 X64.184 Y147.252 E53.3183
G1 X64.215 Y147.748 E53.33483
G1 X64.183 Y148.154 E53.34838
G1 X64.067 Y148.591 E53.36341
G1 X63.85 Y149.049 E53.38027
G1 X63.657 Y149.333 E53.39169
G1 X63.477 Y149.532 E53.40062
G1 X117.5 Y149.53 E55.19743
G1 F2700 E50.19743
G0 F6000 X171.117 Y149.348
G0 X170.709 Y146.982
G0 X172.171 Y145.169
G0 X174.87 Y145.254
G0 X175.098 Y145.382
G0 X175.097 Y89.646
G0 X173.698 Y89.852
G0 X171.749 Y89.583
G0 X172.615 Y88.426
G0 X174.568 Y86.461
G0 X175.348 Y85.434
G1 F2700 E55.19743
G1 F1403.5 X175.285 Y85.398 E55.19949
G1 X175.264 Y85.434 E55.20068
G1 X175.327 Y85.47 E55.20274
G1 X175.348 Y85.434 E55.20393
G0 F6000 X174.889 Y85.283
G0 X173.946 Y85.075
;TYPE:WALL-OUTER
G1 F1218.3 X173.532 Y85.048 E55.21752
G1 F1269.8 X173.155 Y85.057 E55.22937
G1 F2700 E50.22937
G0 F6000 X173.275 Y85.91
G0 X174.832 Y87.064
G0 X175.679 Y86.898
G1 F2700 E55.22937
G1 F1266.5 X175.696 Y87.314 E55.24249
G1 F1273.2 X175.681 Y87.685 E55.25413
G0 F6000 X175.679 Y86.898
G1 F1206 X175.676 Y85.279 E55.30771
G1 F1200 X175.599 Y85.126 E55.31341
G1 X175.412 Y85.064 E55.31996
G1 F1197 X174.298 Y85.065 E55.3571
G1 F1167.9 X173.946 Y85.075 E55.36914
G1 X174.28 Y85.188 E55.38119
G1 F1197 X174.652 Y85.375 E55.39507
G1 F1200 X174.96 Y85.608 E55.40792
G1 X175.227 Y85.889 E55.42081
G1 X175.434 Y86.205 E55.43337
G1 X175.581 Y86.529 E55.44521
G1 F1206 X175.679 Y86.898 E55.45784
G1 F2700 E50.45784
G0 F6000 X175.684 Y147.332
G1 F2700 E55.45784
G1 F1269.8 X175.698 Y147.714 E55.46986
G1 F1266.5 X175.683 Y148.086 E55.48159
G1 F2700 E50.48159
G0 F6000 X175.468 Y149.137
G0 X174.398 Y149.844
G1 F2700 E55.48159
G1 F843.6 X175.453 Y149.843 E55.5315
G1 X175.541 Y149.807 E55.536
G1 X175.596 Y149.649 E55.54392
G1 X175.596 Y148.64 E55.59166
G1 X175.488 Y148.871 E55.60372
G1 X175.296 Y149.156 E55.61998
G1 X175.022 Y149.449 E55.63896
G1 X174.66 Y149.715 E55.66021
G1 X174.398 Y149.844 E55.67403
G0 F6000 X173.919 Y149.923
G1 F1165 X173.91 Y149.923 E55.67434
G1 F1240.3 X173.532 Y149.946 E55.68652
G1 F1283.4 X173.149 Y149.936 E55.69844
G0 F6000 X173.91 Y149.923
G1 F1165 X173.919 Y149.923 E55.69875
G1 F2700 E50.69875
G0 F6000 X173.509 Y149.101
G0 X172.291 Y148.486
G0 X117.5 Y149.929
G1 F2700 E55.69875
G1 F1200 X172.403 Y149.927 E57.52483
G1 F1224.5 X173.149 Y149.936 E57.54915
G1 X172.769 Y149.861 E57.56177
G1 F1200 X172.441 Y149.731 E57.57351
G1 X172.114 Y149.531 E57.58625
G1 X171.823 Y149.279 E57.59906
G1 X171.561 Y148.954 E57.61294
G1 X171.375 Y148.615 E57.6258
G1 X171.25 Y148.255 E57.63848
G1 X171.188 Y147.876 E57.65125
G1 X171.19 Y147.49 E57.66409
G1 X171.259 Y147.109 E57.67697
G1 X171.389 Y146.75 E57.68967
G1 X171.571 Y146.426 E57.70203
G1 X171.807 Y146.133 E57.71454
G1 X172.087 Y145.885 E57.72698
G1 X172.443 Y145.665 E57.7409
G1 X172.8 Y145.528 E57.75362
G1 X173.144 Y145.452 E57.76534
G1 X173.566 Y145.433 E57.77939
G1 X173.91 Y145.477 E57.79092
G1 X174.28 Y145.588 E57.80377
G1 X174.652 Y145.775 E57.81762
G1 X174.96 Y146.008 E57.83046
G1 X175.204 Y146.26 E57.84213
G1 X175.434 Y146.604 E57.85589
G1 X175.583 Y146.929 E57.86778
G1 F1212.1 X175.684 Y147.332 E57.88146
G1 F1224.5 X175.681 Y87.685 E59.82565
G1 F1212.1 X175.582 Y88.066 E59.83862
G1 F1200 X175.418 Y88.424 E59.85171
G1 X175.205 Y88.734 E59.86422
G1 X174.935 Y89.014 E59.87716
G1 X174.622 Y89.239 E59.88998
G1 X174.28 Y89.407 E59.90265
G1 X173.944 Y89.512 E59.91436
G1 X173.566 Y89.563 E59.92705
G1 X173.147 Y89.544 E59.941
G1 X172.769 Y89.462 E59.95386
G1 X172.41 Y89.314 E59.96678
G1 X172.087 Y89.111 E59.97947
G1 X171.823 Y88.879 E59.99116
G1 X171.571 Y88.57 E60.00442
G1 X171.375 Y88.215 E60.01791
G1 X171.25 Y87.855 E60.03058
G1 X171.19 Y87.511 E60.0422
G1 X171.19 Y87.09 E60.0562
G1 X171.25 Y86.741 E60.06798
G1 X171.389 Y86.35 E60.08178
G1 X171.58 Y86.014 E60.09463
G1 X171.824 Y85.717 E60.10742
G1 X172.114 Y85.466 E60.12017
G1 X172.442 Y85.265 E60.13297
G1 X172.77 Y85.137 E60.14468
G1 F1218.3 X173.155 Y85.057 E60.15756
G1 X172.757 Y85.064 E60.1706
G1 F1200 X62.397 Y85.072 E63.84119
G1 F1182.3 X62.045 Y85.079 E63.85308
G1 X62.41 Y85.2 E63.86606
G1 F1200 X62.722 Y85.357 E63.87767
G1 X63.06 Y85.608 E63.89168
G1 X63.327 Y85.888 E63.90455
G1 X63.534 Y86.204 E63.91711
G1 X63.694 Y86.561 E63.93012
G1 X63.788 Y86.932 E63.94285
G1 X63.816 Y87.316 E63.95566
G1 X63.782 Y87.704 E63.96861
G1 X63.683 Y88.067 E63.98113
