;FLAVOR:Marlin
;TIME:24663
;Filament used: 15.0547m
;Layer height: 0.2
;MINX:47.686
;MINY:73.436
;MINZ:0.2
;MAXX:187.314
;MAXY:161.564
;MAXZ:32
;TARGET_MACHINE.NAME:Creality Ender-3
;Generated with Cura_SteamEngine 5.10.1
M140 S50
M105
M190 S50
M104 S200
M105
M109 S200
; Ender 3 Custom Start G-code
G92 E0 ; Reset Extruder
G28 ; Home all axes
G1 Z2.0 F3000 ; Move Z Axis up little to prevent scratching of Heat Bed
G1 X0.1 Y20 Z0.3 F5000.0 ; Move to start position
G1 X0.1 Y200.0 Z0.3 F1500.0 E15 ; Draw the first line
G1 X0.4 Y200.0 Z0.3 F5000.0 ; Move to side a little
G1 X0.4 Y20 Z0.3 F1500.0 E30 ; Draw the second line
G92 E0 ; Reset Extruder
G1 Z2.0 F3000 ; Move Z Axis up little to prevent scratching of Heat Bed
G1 X5 Y20 Z0.3 F5000.0 ; Move over to prevent blob squish
M82 ;absolute extrusion mode
G92 E0
G92 E0
G1 F2700 E-5
;LAYER_COUNT:160
;LAYER:0
M107
G0 F6000 X52.461 Y75.804 Z0.2
;TYPE:SKIRT
G1 F2700 E0
G1 F1200 X53.324 Y75.214 E0.03477
G1 X54.143 Y74.755 E0.066
G1 X54.85 Y74.429 E0.09189
G1 X55.647 Y74.119 E0.12033
G1 X55.727 Y74.099 E0.12308
G1 X56.329 Y73.894 E0.14423
G1 X57.142 Y73.705 E0.17199
G1 X57.291 Y73.659 E0.17718
G1 X57.614 Y73.6 E0.1881
G1 X57.715 Y73.594 E0.19146
G1 X58.286 Y73.508 E0.21067
G1 X58.658 Y73.486 E0.22306
G1 X58.796 Y73.465 E0.22771
G1 X59.339 Y73.445 E0.24578
G1 X60.106 Y73.436 E0.27129
G1 X174.753 Y73.436 E4.08446
G1 X175.588 Y73.448 E4.11224
G1 X176.548 Y73.504 E4.14422
G1 X177.157 Y73.585 E4.16466
G1 X177.528 Y73.645 E4.17716
G1 X178.498 Y73.85 E4.21013
G1 X179.402 Y74.125 E4.24156
G1 X180.517 Y74.586 E4.28169
G1 X181.174 Y74.924 E4.30626
G1 X182.054 Y75.455 E4.34045
G1 X182.852 Y76.042 E4.3734
G1 X183.875 Y76.978 E4.41952
G1 X184.362 Y77.504 E4.44336
G1 X184.988 Y78.269 E4.47623
G1 X185.553 Y79.103 E4.50974
G1 X186.023 Y79.948 E4.5419
G1 X186.329 Y80.616 E4.56634
G1 X186.547 Y81.167 E4.58605
G1 X186.709 Y81.615 E4.60189
G1 X186.982 Y82.55 E4.63429
G1 X187.172 Y83.492 E4.66625
G1 X187.247 Y84.076 E4.68583
G1 X187.245 Y84.193 E4.68972
G1 X187.304 Y85.049 E4.71826
G1 X187.314 Y85.846 E4.74477
G1 X187.313 Y149.242 E6.85333
G1 X187.302 Y149.951 E6.87692
G1 X187.242 Y150.941 E6.90991
G1 X187.095 Y151.902 E6.94224
G1 X186.866 Y152.843 E6.97445
G1 X186.57 Y153.743 E7.00596
G1 X186.212 Y154.647 E7.0383
G1 X185.775 Y155.518 E7.07071
G1 X185.263 Y156.346 E7.10309
G1 X184.723 Y157.071 E7.13316
G1 X184.352 Y157.505 E7.15215
G1 X183.985 Y157.907 E7.17025
G1 X183.696 Y158.201 E7.18397
G1 X182.976 Y158.857 E7.21636
G1 X182.259 Y159.406 E7.2464
G1 X181.369 Y159.966 E7.28137
G1 X180.327 Y160.488 E7.32013
G1 X179.46 Y160.837 E7.35122
G1 X178.602 Y161.121 E7.38128
G1 X177.583 Y161.359 E7.41608
G1 X176.625 Y161.492 E7.44825
G1 X175.799 Y161.541 E7.47577
G1 X174.575 Y161.562 E7.51649
G1 X60.144 Y161.564 E11.32248
G1 X59.28 Y161.551 E11.35122
G1 X58.306 Y161.492 E11.38368
G1 X57.344 Y161.345 E11.41604
G1 X56.466 Y161.133 E11.44608
G1 X55.507 Y160.82 E11.47964
G1 X54.603 Y160.462 E11.51198
G1 X53.732 Y160.025 E11.54439
G1 X52.904 Y159.513 E11.57677
G1 X52.179 Y158.973 E11.60683
G1 X51.745 Y158.602 E11.62582
G1 X51.343 Y158.235 E11.64393
G1 X51.049 Y157.946 E11.65764
G1 X50.393 Y157.226 E11.69004
G1 X49.844 Y156.509 E11.72007
G1 X49.284 Y155.619 E11.75505
G1 X48.762 Y154.577 E11.79381
G1 X48.413 Y153.71 E11.82489
G1 X48.129 Y152.852 E11.85495
G1 X47.891 Y151.833 E11.88976
G1 X47.758 Y150.875 E11.92193
G1 X47.709 Y150.049 E11.94945
G1 X47.687 Y148.821 E11.9903
G1 X47.686 Y85.988 E14.08013
G1 X47.698 Y85.156 E14.10781
G1 X47.752 Y84.225 E14.13882
G1 X47.838 Y83.574 E14.16066
G1 X47.9 Y83.197 E14.17337
G1 X48.073 Y82.358 E14.20186
G1 X48.374 Y81.352 E14.23679
G1 X48.822 Y80.262 E14.27599
G1 X49.174 Y79.576 E14.30163
G1 X49.705 Y78.696 E14.33582
G1 X50.292 Y77.899 E14.36874
G1 X51.227 Y76.878 E14.41478
G1 X51.764 Y76.379 E14.43917
G1 X52.461 Y75.804 E14.46922
G0 F6000 X52.716 Y76.113
G1 F1200 X53.52 Y75.563 E14.50162
G1 X54.339 Y75.104 E14.53284
G1 X54.995 Y74.802 E14.55686
G1 X55.792 Y74.492 E14.58531
G1 X55.829 Y74.487 E14.58655
G1 X56.458 Y74.273 E14.60865
G1 X57.254 Y74.09 E14.63581
G1 X57.363 Y74.052 E14.63965
G1 X57.686 Y73.993 E14.65057
G1 X57.732 Y73.995 E14.6521
G1 X58.31 Y73.907 E14.67155
G1 X58.709 Y73.883 E14.68484
G1 X58.811 Y73.865 E14.68829
G1 X59.344 Y73.845 E14.70603
G1 X60.111 Y73.836 E14.73154
G1 X174.748 Y73.836 E18.54438
G1 X175.565 Y73.847 E18.57156
G1 X176.496 Y73.901 E18.60258
G1 X177.093 Y73.98 E18.62261
G1 X177.464 Y74.04 E18.63511
G1 X178.382 Y74.233 E18.66631
G1 X179.247 Y74.494 E18.69636
G1 X180.227 Y74.905 E18.7317
G1 X180.334 Y74.942 E18.73547
G1 X180.991 Y75.28 E18.76004
G1 X181.818 Y75.778 E18.79215
G1 X182.582 Y76.337 E18.82364
G1 X183.581 Y77.25 E18.86865
G1 X184.068 Y77.776 E18.89249
G1 X184.678 Y78.522 E18.92454
G1 X185.204 Y79.298 E18.95572
G1 X185.659 Y80.115 E18.98683
G1 X185.965 Y80.783 E19.01127
G1 X186.171 Y81.303 E19.02987
G1 X186.325 Y81.728 E19.0449
G1 X186.59 Y82.629 E19.07614
G1 X186.775 Y83.543 E19.10716
G1 X186.85 Y84.127 E19.12674
G1 X186.844 Y84.185 E19.12868
G1 X186.904 Y85.054 E19.15765
G1 X186.914 Y85.846 E19.18399
G1 X186.913 Y149.236 E21.29235
G1 X186.903 Y149.927 E21.31534
G1 X186.846 Y150.881 E21.34713
G1 X186.706 Y151.808 E21.37831
G1 X186.486 Y152.718 E21.40945
G1 X186.198 Y153.596 E21.44018
G1 X185.854 Y154.468 E21.47136
G1 X185.434 Y155.308 E21.50259
G1 X184.942 Y156.107 E21.5338
G1 X184.402 Y156.832 E21.56387
G1 X184.057 Y157.235 E21.58152
G1 X183.699 Y157.627 E21.59917
G1 X183.426 Y157.906 E21.61216
G1 X182.733 Y158.539 E21.64337
G1 X182.016 Y159.088 E21.67341
G1 X181.189 Y159.609 E21.70592
G1 X180.178 Y160.117 E21.74355
G1 X179.334 Y160.457 E21.77381
G1 X178.476 Y160.741 E21.80387
G1 X177.527 Y160.963 E21.83629
G1 X176.601 Y161.093 E21.86739
G1 X175.792 Y161.141 E21.89435
G1 X174.572 Y161.163 E21.93493
G1 X60.15 Y161.164 E25.74062
G1 X59.304 Y161.152 E25.76876
G1 X58.366 Y161.096 E25.80001
G1 X57.438 Y160.956 E25.83123
G1 X56.56 Y160.744 E25.86127
G1 X55.654 Y160.448 E25.89297
G1 X54.782 Y160.104 E25.92415
G1 X53.942 Y159.684 E25.95539
G1 X53.143 Y159.192 E25.9866
G1 X52.418 Y158.652 E26.01666
G1 X52.015 Y158.307 E26.03431
G1 X51.623 Y157.949 E26.05196
G1 X51.344 Y157.676 E26.06495
G1 X50.711 Y156.983 E26.09616
G1 X50.162 Y156.266 E26.1262
G1 X49.641 Y155.439 E26.15871
G1 X49.133 Y154.428 E26.19634
G1 X48.793 Y153.584 E26.22661
G1 X48.509 Y152.726 E26.25667
G1 X48.287 Y151.777 E26.28908
G1 X48.157 Y150.851 E26.32018
G1 X48.109 Y150.042 E26.34714
G1 X48.087 Y148.821 E26.38775
G1 X48.086 Y85.993 E28.47742
G1 X48.097 Y85.179 E28.5045
G1 X48.149 Y84.277 E28.53455
G1 X48.233 Y83.639 E28.55595
G1 X48.292 Y83.278 E28.56812
G1 X48.465 Y82.439 E28.59661
G1 X48.744 Y81.504 E28.62906
G1 X49.178 Y80.445 E28.66713
G1 X49.53 Y79.759 E28.69277
G1 X50.028 Y78.932 E28.72488
G1 X50.587 Y78.169 E28.75634
G1 X51.499 Y77.171 E28.80131
G1 X52.019 Y76.688 E28.82491
G1 X52.716 Y76.113 E28.85497
G0 F6000 X52.971 Y76.422
G1 F1200 X53.716 Y75.912 E28.88499
G1 X54.503 Y75.469 E28.91503
G1 X55.142 Y75.181 E28.93834
G1 X55.14 Y75.175 E28.93855
G1 X55.937 Y74.865 E28.967
G1 X55.939 Y74.872 E28.96724
G1 X56.587 Y74.652 E28.99
G1 X57.438 Y74.458 E29.01903
G1 X57.435 Y74.445 E29.01947
G1 X57.758 Y74.386 E29.0304
G1 X57.759 Y74.395 E29.0307
G1 X58.332 Y74.306 E29.04998
G1 X58.827 Y74.279 E29.06647
G1 X58.826 Y74.265 E29.06694
G1 X59.349 Y74.245 E29.08435
G1 X60.116 Y74.236 E29.10986
G1 X174.743 Y74.236 E32.92237
G1 X175.542 Y74.246 E32.94894
G1 X176.444 Y74.298 E32.979
G1 X177.029 Y74.375 E32.99862
G1 X177.382 Y74.432 E33.01051
G1 X178.266 Y74.616 E33.04055
G1 X179.131 Y74.877 E33.0706
G1 X180.147 Y75.307 E33.10729
G1 X180.151 Y75.298 E33.10762
G1 X180.808 Y75.636 E33.13219
G1 X181.582 Y76.101 E33.16222
G1 X182.312 Y76.633 E33.19227
G1 X183.287 Y77.522 E33.23615
G1 X183.774 Y78.048 E33.25999
G1 X184.347 Y78.747 E33.29006
G1 X184.855 Y79.493 E33.32007
G1 X185.295 Y80.282 E33.35012
G1 X185.601 Y80.95 E33.37456
G1 X185.795 Y81.44 E33.39209
G1 X185.941 Y81.842 E33.40631
G1 X186.198 Y82.709 E33.43639
G1 X186.378 Y83.594 E33.46643
G1 X186.453 Y84.178 E33.48601
G1 X186.443 Y84.179 E33.48635
G1 X186.504 Y85.059 E33.51568
G1 X186.514 Y85.846 E33.54186
G1 X186.513 Y149.23 E35.65002
G1 X186.503 Y149.921 E35.67301
G1 X186.45 Y150.822 E35.70303
G1 X186.317 Y151.715 E35.73306
G1 X186.106 Y152.594 E35.76312
G1 X185.826 Y153.45 E35.79308
G1 X185.496 Y154.29 E35.82309
G1 X185.093 Y155.099 E35.85316
G1 X184.621 Y155.868 E35.88317
G1 X184.081 Y156.593 E35.91323
G1 X183.762 Y156.965 E35.92953
G1 X183.412 Y157.348 E35.94679
G1 X183.156 Y157.611 E35.959
G1 X182.49 Y158.221 E35.98903
G1 X181.773 Y158.77 E36.01907
G1 X181.009 Y159.252 E36.04912
G1 X180.028 Y159.746 E36.08565
G1 X179.208 Y160.077 E36.11506
G1 X178.35 Y160.361 E36.14512
G1 X177.471 Y160.567 E36.17515
G1 X176.577 Y160.694 E36.20518
G1 X175.785 Y160.741 E36.23157
G1 X174.572 Y160.763 E36.27192
G1 X60.155 Y160.764 E40.07744
G1 X59.327 Y160.753 E40.10499
G1 X58.425 Y160.7 E40.13504
G1 X57.532 Y160.567 E40.16507
G1 X56.654 Y160.355 E40.19511
G1 X55.8 Y160.076 E40.22499
G1 X54.96 Y159.746 E40.25501
G1 X54.151 Y159.343 E40.28507
G1 X53.382 Y158.871 E40.31508
G1 X52.657 Y158.331 E40.34515
G1 X52.285 Y158.012 E40.36145
G1 X51.902 Y157.662 E40.3787
G1 X51.639 Y157.406 E40.39091
G1 X51.029 Y156.74 E40.42095
G1 X50.48 Y156.023 E40.45098
G1 X49.998 Y155.259 E40.48103
G1 X49.504 Y154.278 E40.51756
G1 X49.173 Y153.458 E40.54697
G1 X48.889 Y152.6 E40.57703
G1 X48.683 Y151.721 E40.60706
G1 X48.556 Y150.827 E40.63709
G1 X48.509 Y150.035 E40.66348
G1 X48.487 Y148.821 E40.70386
G1 X48.486 Y85.998 E42.79337
G1 X48.496 Y85.202 E42.81984
G1 X48.548 Y84.3 E42.84989
G1 X48.628 Y83.703 E42.86993
G1 X48.684 Y83.359 E42.88152
G1 X48.857 Y82.52 E42.91001
G1 X49.114 Y81.655 E42.94002
G1 X49.534 Y80.628 E42.97693
G1 X49.886 Y79.942 E43.00257
G1 X50.351 Y79.168 E43.03261
G1 X50.883 Y78.438 E43.06265
G1 X51.771 Y77.464 E43.10649
G1 X52.274 Y76.997 E43.12932
G1 X52.971 Y76.422 E43.15937
G1 F2700 E38.15937
;MESH:Bottom cover.STL
G0 F6000 X59.016 Y84.352
G0 X117.5 Y149.532
;TYPE:WALL-INNER
G1 F2700 E43.15937
G1 F1200 X175.28 Y149.532 E45.08114
G1 X175.28 Y85.464 E47.21205
G1 X59.716 Y85.464 E51.05572
G1 X59.716 Y149.532 E53.18663
G1 X117.5 Y149.532 E55.10854
G0 F6000 X117.5 Y149.932
;TYPE:WALL-OUTER
G1 F1200 X175.492 Y149.931 E57.03736
G1 X175.609 Y149.862 E57.04188
G1 X175.68 Y149.682 E57.04831
G1 X175.68 Y85.318 E59.18907
G1 X175.611 Y85.136 E59.19554
G1 X175.426 Y85.064 E59.20214
G1 X59.567 Y85.064 E63.05563
G1 X59.388 Y85.137 E63.06206
G1 X59.316 Y85.32 E63.0686
G1 X59.317 Y149.74 E65.21122
G1 X59.388 Y149.86 E65.21586
G1 X59.565 Y149.932 E65.22221
G1 X117.5 Y149.932 E67.14914
G0 F6000 X117.5 Y149.172
;TYPE:SKIN
G1 F1200 X60.076 Y149.172 E69.05907
G1 X60.076 Y85.824 E71.16603
G1 X174.92 Y85.824 E74.98576
G1 X174.92 Y149.172 E77.09272
G1 X117.5 Y149.172 E79.00252
G1 F2700 E74.00252
G0 F6000 X117.5 Y149.432
G0 X59.888 Y149.36
G0 X59.816 Y148.523
G0 X60.276 Y148.523
G1 F2700 E79.00252
G1 F1200 X60.725 Y148.972 E79.02364
G0 F6000 X61.291 Y148.972
G1 F1200 X60.276 Y147.957 E79.07138
G0 F6000 X60.276 Y147.391
G1 F1200 X61.856 Y148.972 E79.14572
G0 F6000 X62.422 Y148.972
G1 F1200 X60.276 Y146.826 E79.24666
G0 F6000 X60.276 Y146.26
G1 F1200 X62.988 Y148.972 E79.37423
G0 F6000 X63.553 Y148.972
G1 F1200 X60.276 Y145.694 E79.52839
G0 F6000 X60.276 Y145.129
G1 F1200 X64.119 Y148.972 E79.70915
G0 F6000 X64.685 Y148.972
G1 F1200 X60.276 Y144.563 E79.91654
G0 F6000 X60.276 Y143.997
G1 F1200 X65.25 Y148.972 E80.15052
G0 F6000 X65.816 Y148.972
G1 F1200 X60.276 Y143.432 E80.41111
G0 F6000 X60.276 Y142.866
G1 F1200 X66.382 Y148.972 E80.69832
G0 F6000 X66.947 Y148.972
G1 F1200 X60.276 Y142.3 E81.01212
G0 F6000 X60.276 Y141.735
G1 F1200 X67.513 Y148.972 E81.35253
G0 F6000 X68.079 Y148.972
G1 F1200 X60.276 Y141.169 E81.71956
G0 F6000 X60.276 Y140.603
G1 F1200 X68.645 Y148.972 E82.11321
G0 F6000 X69.21 Y148.972
G1 F1200 X60.276 Y140.038 E82.53344
G0 F6000 X60.276 Y139.472
G1 F1200 X69.776 Y148.972 E82.98029
G0 F6000 X70.342 Y148.972
G1 F1200 X60.276 Y138.906 E83.45376
G0 F6000 X60.276 Y138.34
G1 F1200 X70.907 Y148.972 E83.95384
G0 F6000 X71.473 Y148.972
G1 F1200 X60.276 Y137.775 E84.48051
G0 F6000 X60.276 Y137.209
G1 F1200 X72.039 Y148.972 E85.03381
G0 F6000 X72.604 Y148.972
G1 F1200 X60.276 Y136.643 E85.6137
G0 F6000 X60.276 Y136.078
G1 F1200 X73.17 Y148.972 E86.22019
G0 F6000 X73.736 Y148.972
G1 F1200 X60.276 Y135.512 E86.85331
G0 F6000 X60.276 Y134.946
G1 F1200 X74.301 Y148.972 E87.51303
G0 F6000 X74.867 Y148.972
G1 F1200 X60.276 Y134.381 E88.19934
G0 F6000 X60.276 Y133.815
G1 F1200 X75.433 Y148.972 E88.91228
G0 F6000 X75.998 Y148.972
G1 F1200 X60.276 Y133.249 E89.65182
G0 F6000 X60.276 Y132.684
G1 F1200 X76.564 Y148.972 E90.41796
G0 F6000 X77.13 Y148.972
G1 F1200 X60.276 Y132.118 E91.21072
G0 F6000 X60.276 Y131.552
G1 F1200 X77.695 Y148.972 E92.03008
G0 F6000 X78.261 Y148.972
G1 F1200 X60.276 Y130.987 E92.87604
G0 F6000 X60.276 Y130.421
G1 F1200 X78.827 Y148.972 E93.74862
G0 F6000 X79.393 Y148.972
G1 F1200 X60.276 Y129.855 E94.64783
G0 F6000 X60.276 Y129.29
G1 F1200 X79.958 Y148.972 E95.57361
G0 F6000 X80.524 Y148.972
G1 F1200 X60.276 Y128.724 E96.52601
G0 F6000 X60.276 Y128.158
G1 F1200 X81.09 Y148.972 E97.50504
G0 F6000 X81.655 Y148.972
G1 F1200 X60.276 Y127.592 E98.51066
G0 F6000 X60.276 Y127.027
G1 F1200 X82.221 Y148.972 E99.54289
G0 F6000 X82.787 Y148.972
G1 F1200 X60.276 Y126.461 E100.60174
G0 F6000 X60.276 Y125.895
G1 F1200 X83.352 Y148.972 E101.68718
G0 F6000 X83.918 Y148.972
G1 F1200 X60.276 Y125.33 E102.79923
G0 F6000 X60.276 Y124.764
G1 F1200 X84.484 Y148.972 E103.9379
G0 F6000 X85.049 Y148.972
G1 F1200 X60.276 Y124.198 E105.10317
G0 F6000 X60.276 Y123.633
G1 F1200 X85.615 Y148.972 E106.29504
G0 F6000 X86.181 Y148.972
G1 F1200 X60.276 Y123.067 E107.51353
G0 F6000 X60.276 Y122.501
G1 F1200 X86.746 Y148.972 E108.75862
G0 F6000 X87.312 Y148.972
G1 F1200 X60.276 Y121.936 E110.03031
G0 F6000 X60.276 Y121.37
G1 F1200 X87.878 Y148.972 E111.32863
G0 F6000 X88.444 Y148.972
G1 F1200 X60.276 Y120.804 E112.65356
G0 F6000 X60.276 Y120.239
G1 F1200 X89.009 Y148.972 E114.00508
G0 F6000 X89.575 Y148.972
G1 F1200 X60.276 Y119.673 E115.38321
G0 F6000 X60.276 Y119.107
G1 F1200 X90.141 Y148.972 E116.78797
G0 F6000 X90.706 Y148.972
G1 F1200 X60.276 Y118.542 E118.2193
G0 F6000 X60.276 Y117.976
G1 F1200 X91.272 Y148.972 E119.67726
G0 F6000 X91.838 Y148.972
G1 F1200 X60.276 Y117.41 E121.16184
G0 F6000 X60.276 Y116.844
G1 F1200 X92.403 Y148.972 E122.67302
G0 F6000 X92.969 Y148.972
G1 F1200 X60.276 Y116.279 E124.2108
G0 F6000 X60.276 Y115.713
G1 F1200 X93.535 Y148.972 E125.7752
G0 F6000 X94.1 Y148.972
G1 F1200 X60.276 Y115.147 E127.3662
G0 F6000 X60.276 Y114.582
G1 F1200 X94.666 Y148.972 E128.9838
G0 F6000 X95.232 Y148.972
G1 F1200 X60.276 Y114.016 E130.62802
G0 F6000 X60.276 Y113.45
G1 F1200 X95.797 Y148.972 E132.29884
G0 F6000 X96.363 Y148.972
G1 F1200 X60.276 Y112.885 E133.99627
G0 F6000 X60.276 Y112.319
G1 F1200 X96.929 Y148.972 E135.72031
G0 F6000 X97.494 Y148.972
G1 F1200 X60.276 Y111.753 E137.47096
G0 F6000 X60.276 Y111.188
G1 F1200 X98.06 Y148.972 E139.2482
G0 F6000 X98.626 Y148.972
G1 F1200 X60.276 Y110.622 E141.05207
G0 F6000 X60.276 Y110.056
G1 F1200 X99.192 Y148.972 E142.88255
G0 F6000 X99.757 Y148.972
G1 F1200 X60.276 Y109.491 E144.73962
G0 F6000 X60.276 Y108.925
G1 F1200 X100.323 Y148.972 E146.62331
G0 F6000 X100.889 Y148.972
G1 F1200 X60.276 Y108.359 E148.53362
G0 F6000 X60.276 Y107.793
G1 F1200 X101.454 Y148.972 E150.47053
G0 F6000 X102.02 Y148.972
G1 F1200 X60.276 Y107.228 E152.43404
G0 F6000 X60.276 Y106.662
G1 F1200 X102.586 Y148.972 E154.42417
G0 F6000 X103.151 Y148.972
G1 F1200 X60.276 Y106.096 E156.4409
G0 F6000 X60.276 Y105.531
G1 F1200 X103.717 Y148.972 E158.48424
G0 F6000 X104.283 Y148.972
G1 F1200 X60.276 Y104.965 E160.55419
G0 F6000 X60.276 Y104.399
G1 F1200 X104.848 Y148.972 E162.65074
G0 F6000 X105.414 Y148.972
G1 F1200 X60.276 Y103.834 E164.7739
G0 F6000 X60.276 Y103.268
G1 F1200 X105.98 Y148.972 E166.92367
G0 F6000 X106.545 Y148.972
